src/raw/instagram/icon_24.svg

<svg width="24" height="24" viewBox="0 0 24 24" fill="none" xmlns="http://www.w3.org/2000/svg">
<path fill-rule="evenodd" clip-rule="evenodd" d="M7.46471 1.0662C8.63794 1.01266 9.01258 1 12 1C14.9874 1 15.362 1.01266 16.5352 1.0662C17.7061 1.1196 18.5057 1.30556 19.2054 1.57751C19.9288 1.85858 20.5422 2.2347 21.1537 2.84623C21.7653 3.45779 22.1414 4.07123 22.4225 4.79454C22.6944 5.49426 22.8804 6.29385 22.9338 7.46471C22.9873 8.63798 23 9.01258 23 12C23 14.9874 22.9873 15.362 22.9338 16.5353C22.8804 17.7061 22.6944 18.5057 22.4225 19.2054C22.1414 19.9288 21.7653 20.5422 21.1537 21.1537C20.5422 21.7653 19.9288 22.1414 19.2054 22.4225C18.5057 22.6944 17.7061 22.8804 16.5352 22.9338C15.362 22.9873 14.9874 23 12 23C9.01258 23 8.63794 22.9873 7.46471 22.9338C6.29385 22.8804 5.49426 22.6944 4.79454 22.4225C4.07123 22.1414 3.45775 21.7653 2.84623 21.1537C2.23466 20.5422 1.85858 19.9287 1.57746 19.2054C1.30552 18.5057 1.1196 17.7061 1.06615 16.5353C1.01262 15.362 1 14.9874 1 12C1 9.01254 1.01262 8.63798 1.06615 7.46471C1.1196 6.29385 1.30552 5.49426 1.57746 4.79454C1.85858 4.07123 2.23466 3.45779 2.84623 2.84623C3.45775 2.2347 4.07123 1.85858 4.79454 1.57751C5.49426 1.30556 6.29385 1.1196 7.46471 1.0662ZM16.4449 3.04608C15.285 2.99316 14.9371 2.98198 12 2.98198C9.06284 2.98198 8.71496 2.99316 7.55501 3.04608C6.48257 3.09503 5.90008 3.27423 5.51247 3.42487C4.99906 3.62442 4.63259 3.86278 4.24768 4.24773C3.86278 4.63263 3.62437 4.99906 3.42482 5.51252C3.27423 5.90013 3.09503 6.48257 3.04608 7.55506C2.99316 8.71496 2.98198 9.06288 2.98198 12C2.98198 14.9371 2.99316 15.285 3.04608 16.4449C3.09503 17.5174 3.27423 18.0999 3.42482 18.4875C3.62437 19.0009 3.86278 19.3674 4.24768 19.7523C4.63259 20.1372 4.99906 20.3756 5.51247 20.5751C5.90008 20.7257 6.48257 20.905 7.55506 20.9539C8.71479 21.0068 9.06262 21.018 12 21.018C14.9373 21.018 15.2852 21.0068 16.4449 20.9539C17.5174 20.905 18.0998 20.7257 18.4874 20.5751C19.0009 20.3756 19.3674 20.1372 19.7523 19.7523C20.1372 19.3674 20.3755 19.0009 20.5751 18.4875C20.7257 18.0999 20.9049 17.5174 20.9539 16.4449C21.0068 15.285 21.018 14.9371 21.018 12C21.018 9.06288 21.0068 8.71496 20.9539 7.55506C20.9049 6.48257 20.7257 5.90013 20.5751 5.51252C20.3755 4.99906 20.1372 4.63263 19.7523 4.24768C19.3674 3.86278 19.0009 3.62442 18.4874 3.42487C18.0998 3.27423 17.5174 3.09503 16.4449 3.04608ZM8.33329 12C8.33329 14.025 9.97495 15.6667 12 15.6667C14.025 15.6667 15.6667 14.025 15.6667 12C15.6667 9.97495 14.025 8.33333 12 8.33333C9.97495 8.33333 8.33329 9.97495 8.33329 12ZM6.35131 12C6.35131 8.88032 8.88032 6.35136 12 6.35136C15.1196 6.35136 17.6486 8.88032 17.6486 12C17.6486 15.1197 15.1196 17.6486 12 17.6486C8.88032 17.6486 6.35131 15.1197 6.35131 12ZM17.8718 7.44816C18.6008 7.44816 19.1918 6.8572 19.1918 6.12818C19.1918 5.39915 18.6008 4.8082 17.8718 4.8082C17.1428 4.8082 16.5518 5.39915 16.5518 6.12818C16.5518 6.8572 17.1428 7.44816 17.8718 7.44816Z" fill="#3F3F46"/>
<mask id="mask0_2844_2717" style="mask-type:luminance" maskUnits="userSpaceOnUse" x="1" y="1" width="22" height="22">
<path fill-rule="evenodd" clip-rule="evenodd" d="M7.46471 1.0662C8.63794 1.01266 9.01258 1 12 1C14.9874 1 15.362 1.01266 16.5352 1.0662C17.7061 1.1196 18.5057 1.30556 19.2054 1.57751C19.9288 1.85858 20.5422 2.2347 21.1537 2.84623C21.7653 3.45779 22.1414 4.07123 22.4225 4.79454C22.6944 5.49426 22.8804 6.29385 22.9338 7.46471C22.9873 8.63798 23 9.01258 23 12C23 14.9874 22.9873 15.362 22.9338 16.5353C22.8804 17.7061 22.6944 18.5057 22.4225 19.2054C22.1414 19.9288 21.7653 20.5422 21.1537 21.1537C20.5422 21.7653 19.9288 22.1414 19.2054 22.4225C18.5057 22.6944 17.7061 22.8804 16.5352 22.9338C15.362 22.9873 14.9874 23 12 23C9.01258 23 8.63794 22.9873 7.46471 22.9338C6.29385 22.8804 5.49426 22.6944 4.79454 22.4225C4.07123 22.1414 3.45775 21.7653 2.84623 21.1537C2.23466 20.5422 1.85858 19.9287 1.57746 19.2054C1.30552 18.5057 1.1196 17.7061 1.06615 16.5353C1.01262 15.362 1 14.9874 1 12C1 9.01254 1.01262 8.63798 1.06615 7.46471C1.1196 6.29385 1.30552 5.49426 1.57746 4.79454C1.85858 4.07123 2.23466 3.45779 2.84623 2.84623C3.45775 2.2347 4.07123 1.85858 4.79454 1.57751C5.49426 1.30556 6.29385 1.1196 7.46471 1.0662ZM16.4449 3.04608C15.285 2.99316 14.9371 2.98198 12 2.98198C9.06284 2.98198 8.71496 2.99316 7.55501 3.04608C6.48257 3.09503 5.90008 3.27423 5.51247 3.42487C4.99906 3.62442 4.63259 3.86278 4.24768 4.24773C3.86278 4.63263 3.62437 4.99906 3.42482 5.51252C3.27423 5.90013 3.09503 6.48257 3.04608 7.55506C2.99316 8.71496 2.98198 9.06288 2.98198 12C2.98198 14.9371 2.99316 15.285 3.04608 16.4449C3.09503 17.5174 3.27423 18.0999 3.42482 18.4875C3.62437 19.0009 3.86278 19.3674 4.24768 19.7523C4.63259 20.1372 4.99906 20.3756 5.51247 20.5751C5.90008 20.7257 6.48257 20.905 7.55506 20.9539C8.71479 21.0068 9.06262 21.018 12 21.018C14.9373 21.018 15.2852 21.0068 16.4449 20.9539C17.5174 20.905 18.0998 20.7257 18.4874 20.5751C19.0009 20.3756 19.3674 20.1372 19.7523 19.7523C20.1372 19.3674 20.3755 19.0009 20.5751 18.4875C20.7257 18.0999 20.9049 17.5174 20.9539 16.4449C21.0068 15.285 21.018 14.9371 21.018 12C21.018 9.06288 21.0068 8.71496 20.9539 7.55506C20.9049 6.48257 20.7257 5.90013 20.5751 5.51252C20.3755 4.99906 20.1372 4.63263 19.7523 4.24768C19.3674 3.86278 19.0009 3.62442 18.4874 3.42487C18.0998 3.27423 17.5174 3.09503 16.4449 3.04608ZM8.33329 12C8.33329 14.025 9.97495 15.6667 12 15.6667C14.025 15.6667 15.6667 14.025 15.6667 12C15.6667 9.97495 14.025 8.33333 12 8.33333C9.97495 8.33333 8.33329 9.97495 8.33329 12ZM6.35131 12C6.35131 8.88032 8.88032 6.35136 12 6.35136C15.1196 6.35136 17.6486 8.88032 17.6486 12C17.6486 15.1197 15.1196 17.6486 12 17.6486C8.88032 17.6486 6.35131 15.1197 6.35131 12ZM17.8718 7.44816C18.6008 7.44816 19.1918 6.8572 19.1918 6.12818C19.1918 5.39915 18.6008 4.8082 17.8718 4.8082C17.1428 4.8082 16.5518 5.39915 16.5518 6.12818C16.5518 6.8572 17.1428 7.44816 17.8718 7.44816Z" fill="white"/>
</mask>
<g mask="url(#mask0_2844_2717)">
</g>
</svg>

<svg xmlns="http://www.w3.org/2000/svg" width="24" height="24" fill="none" viewBox="0 0 24 24">
  <path fill="#3F3F46" fill-rule="evenodd"
    d="M7.465 1.066C8.638 1.013 9.013 1 12 1s3.362.013 4.535.066c1.171.054 1.97.24 2.67.512a5.39 5.39 0 0 1 1.949 1.268 5.391 5.391 0 0 1 1.268 1.949c.272.7.458 1.499.512 2.67C22.987 8.638 23 9.013 23 12s-.013 3.362-.066 4.535c-.054 1.171-.24 1.97-.512 2.67a5.39 5.39 0 0 1-1.268 1.949 5.39 5.39 0 0 1-1.949 1.268c-.7.272-1.499.458-2.67.512-1.173.053-1.548.066-4.535.066s-3.362-.013-4.535-.066c-1.171-.054-1.97-.24-2.67-.512a5.391 5.391 0 0 1-1.949-1.268 5.392 5.392 0 0 1-1.269-1.949c-.271-.7-.457-1.499-.51-2.67C1.012 15.362 1 14.987 1 12s.013-3.362.066-4.535c.054-1.171.24-1.97.511-2.67a5.392 5.392 0 0 1 1.27-1.949 5.391 5.391 0 0 1 1.948-1.268c.7-.272 1.499-.458 2.67-.512Zm8.98 1.98c-1.16-.053-1.508-.064-4.445-.064-2.937 0-3.285.011-4.445.064-1.072.049-1.655.228-2.043.379-.513.2-.88.438-1.264.823a3.408 3.408 0 0 0-.823 1.265c-.15.387-.33.97-.379 2.042-.053 1.16-.064 1.508-.064 4.445 0 2.937.011 3.285.064 4.445.049 1.072.228 1.655.379 2.043.2.513.438.88.823 1.264.385.385.751.624 1.264.823.388.15.97.33 2.043.379 1.16.053 1.508.064 4.445.064 2.937 0 3.285-.011 4.445-.064 1.072-.049 1.655-.228 2.042-.379.514-.2.88-.438 1.265-.823a3.41 3.41 0 0 0 .823-1.264c.15-.388.33-.97.379-2.043.053-1.16.064-1.508.064-4.445 0-2.937-.011-3.285-.064-4.445-.05-1.072-.228-1.655-.379-2.042a3.41 3.41 0 0 0-.823-1.265 3.408 3.408 0 0 0-1.265-.823c-.387-.15-.97-.33-2.042-.379ZM8.333 12a3.667 3.667 0 1 0 7.334 0 3.667 3.667 0 0 0-7.334 0Zm-1.982 0a5.649 5.649 0 1 1 11.298 0A5.649 5.649 0 0 1 6.35 12Zm11.52-4.552a1.32 1.32 0 1 0 0-2.64 1.32 1.32 0 0 0 0 2.64Z"
    clip-rule="evenodd" />
  <mask id="a" width="22" height="22" x="1" y="1" maskUnits="userSpaceOnUse"
    style="mask-type:luminance">
    <path fill="#fff" fill-rule="evenodd"
      d="M7.465 1.066C8.638 1.013 9.013 1 12 1s3.362.013 4.535.066c1.171.054 1.97.24 2.67.512a5.39 5.39 0 0 1 1.949 1.268 5.391 5.391 0 0 1 1.268 1.949c.272.7.458 1.499.512 2.67C22.987 8.638 23 9.013 23 12s-.013 3.362-.066 4.535c-.054 1.171-.24 1.97-.512 2.67a5.39 5.39 0 0 1-1.268 1.949 5.39 5.39 0 0 1-1.949 1.268c-.7.272-1.499.458-2.67.512-1.173.053-1.548.066-4.535.066s-3.362-.013-4.535-.066c-1.171-.054-1.97-.24-2.67-.512a5.391 5.391 0 0 1-1.949-1.268 5.392 5.392 0 0 1-1.269-1.949c-.271-.7-.457-1.499-.51-2.67C1.012 15.362 1 14.987 1 12s.013-3.362.066-4.535c.054-1.171.24-1.97.511-2.67a5.392 5.392 0 0 1 1.27-1.949 5.391 5.391 0 0 1 1.948-1.268c.7-.272 1.499-.458 2.67-.512Zm8.98 1.98c-1.16-.053-1.508-.064-4.445-.064-2.937 0-3.285.011-4.445.064-1.072.049-1.655.228-2.043.379-.513.2-.88.438-1.264.823a3.408 3.408 0 0 0-.823 1.265c-.15.387-.33.97-.379 2.042-.053 1.16-.064 1.508-.064 4.445 0 2.937.011 3.285.064 4.445.049 1.072.228 1.655.379 2.043.2.513.438.88.823 1.264.385.385.751.624 1.264.823.388.15.97.33 2.043.379 1.16.053 1.508.064 4.445.064 2.937 0 3.285-.011 4.445-.064 1.072-.049 1.655-.228 2.042-.379.514-.2.88-.438 1.265-.823a3.41 3.41 0 0 0 .823-1.264c.15-.388.33-.97.379-2.043.053-1.16.064-1.508.064-4.445 0-2.937-.011-3.285-.064-4.445-.05-1.072-.228-1.655-.379-2.042a3.41 3.41 0 0 0-.823-1.265 3.408 3.408 0 0 0-1.265-.823c-.387-.15-.97-.33-2.042-.379ZM8.333 12a3.667 3.667 0 1 0 7.334 0 3.667 3.667 0 0 0-7.334 0Zm-1.982 0a5.649 5.649 0 1 1 11.298 0A5.649 5.649 0 0 1 6.35 12Zm11.52-4.552a1.32 1.32 0 1 0 0-2.64 1.32 1.32 0 0 0 0 2.64Z"
      clip-rule="evenodd" />
  </mask>
</svg>
